src/Resource_Files/fluent/heading-normal.svg

<svg clip-rule="evenodd" fill-rule="evenodd" stroke-linejoin="round" stroke-miterlimit="2" viewBox="0 0 16 16" xmlns="http://www.w3.org/2000/svg"><path d="m5.965 4.741c.126-.142.269-.277.429-.407.388-.313.88-.474 1.479-.474.427 0 .829.092 1.205.276.371.181.697.431.977.749.277.314.498.682.662 1.106.164.423.246.871.246 1.345v1.204c0 .462-.082.902-.247 1.32-.163.415-.382.785-.658 1.11-.279.33-.601.591-.965.785-.373.198-.769.297-1.189.297-.536 0-1.016-.149-1.442-.447-.188-.132-.354-.275-.497-.43v4.275c0 .137-.043.259-.129.366-.099.123-.226.184-.383.184-.163 0-.29-.065-.381-.193-.076-.105-.115-.224-.115-.357v-10.95c0-.17.049-.294.124-.379.084-.094.205-.153.372-.153.152 0 .273.053.368.149.09.093.144.219.144.383zm3.991 2.595v1.204c0 .31-.056.611-.168.904-.114.296-.263.558-.45.787-.183.224-.4.404-.65.541-.241.132-.492.198-.752.198-.278 0-.533-.065-.764-.196-.245-.139-.458-.305-.639-.5-.181-.194-.323-.392-.425-.597-.092-.184-.143-.339-.143-.469v-1.872c0-.379.057-.719.175-1.019.117-.298.266-.549.451-.753.181-.2.387-.354.62-.462.229-.106.466-.16.709-.16.27 0 .526.066.768.199.252.137.473.316.661.536.19.221.338.478.445.77.108.294.162.59.162.889z" fill="#1abc9c" transform="translate(.042565)"/></svg>

<?xml version="1.0" encoding="UTF-8" standalone="no"?>
<!DOCTYPE svg PUBLIC "-//W3C//DTD SVG 1.1//EN" "http://www.w3.org/Graphics/SVG/1.1/DTD/svg11.dtd">
<svg width="100%" height="100%" viewBox="0 0 16 16" version="1.1" xmlns="http://www.w3.org/2000/svg" xmlns:xlink="http://www.w3.org/1999/xlink" xml:space="preserve" xmlns:serif="http://www.serif.com/" style="fill-rule:evenodd;clip-rule:evenodd;stroke-linejoin:round;stroke-miterlimit:2;">
    <g transform="matrix(1,0,0,1,0.0425646,0)">
        <path d="M5.965,4.741C6.091,4.599 6.234,4.464 6.394,4.334C6.782,4.021 7.274,3.86 7.873,3.86C8.3,3.86 8.702,3.952 9.078,4.136C9.449,4.317 9.775,4.567 10.055,4.885C10.332,5.199 10.553,5.567 10.717,5.991C10.881,6.414 10.963,6.862 10.963,7.336L10.963,8.54C10.963,9.002 10.881,9.442 10.716,9.86C10.553,10.275 10.334,10.645 10.058,10.97C9.779,11.3 9.457,11.561 9.093,11.755C8.72,11.953 8.324,12.052 7.904,12.052C7.368,12.052 6.888,11.903 6.462,11.605C6.274,11.473 6.108,11.33 5.965,11.175L5.965,15.45C5.965,15.587 5.922,15.709 5.836,15.816C5.737,15.939 5.61,16 5.453,16C5.29,16 5.163,15.935 5.072,15.807C4.996,15.702 4.957,15.583 4.957,15.45L4.957,4.5C4.957,4.33 5.006,4.206 5.081,4.121C5.165,4.027 5.286,3.968 5.453,3.968C5.605,3.968 5.726,4.021 5.821,4.117C5.911,4.21 5.965,4.336 5.965,4.5L5.965,4.741ZM9.956,7.336L9.956,8.54C9.956,8.85 9.9,9.151 9.788,9.444C9.674,9.74 9.525,10.002 9.338,10.231C9.155,10.455 8.938,10.635 8.688,10.772C8.447,10.904 8.196,10.97 7.936,10.97C7.658,10.97 7.403,10.905 7.172,10.774C6.927,10.635 6.714,10.469 6.533,10.274C6.352,10.08 6.21,9.882 6.108,9.677C6.016,9.493 5.965,9.338 5.965,9.208C5.965,9.208 5.965,7.336 5.965,7.336C5.965,6.957 6.022,6.617 6.14,6.317C6.257,6.019 6.406,5.768 6.591,5.564C6.772,5.364 6.978,5.21 7.211,5.102C7.44,4.996 7.677,4.942 7.92,4.942C8.19,4.942 8.446,5.008 8.688,5.141C8.94,5.278 9.161,5.457 9.349,5.677C9.539,5.898 9.687,6.155 9.794,6.447C9.902,6.741 9.956,7.037 9.956,7.336Z" style="fill:rgb(26,188,156);"/>
    </g>
</svg>
